X: 236
T: Missa De Beata Marie Virginis (III) Et vitam Credo
C: Giovanni Perluigi da Palestrina
L: 1/4
M: 4/2
N: Derived from Credo_10_i.krn
Q: "Credo"
V: 1 clef=treble
V: 2 clef=treble
V: 3 clef=treble-8
V: 4 clef=treble-8
V: 5 clef=bass
K: C
[V:1] z4G4 | 
[V:2] z2D4E2 | 
[V:3] z8 | 
[V:4] G4B2c2 | 
[V:5] z8 | 
[V:1] B2c2d2e2- | 
[V:2] ^F2G2A2A2 | 
[V:3] z8 | 
[V:4] d2e2d2c2- | 
[V:5] z8 | 
[V:1] e2d2c2B2 | 
[V:2] G2>D2E^FG2- | 
[V:3] z8 | 
[V:4] c2B2A2G2 | 
[V:5] z8 | 
[V:1] A4G4 | 
[V:2] G2^F2G4 | 
[V:3] z4G4 | 
[V:4] d4BGg2- | 
[V:5] D,4E,3F, | 
[V:1] z4G4 | 
[V:2] z4z2G2- | 
[V:3] B2c2d2e2 | 
[V:4] gfe2d2c2 | 
[V:5] G,2A,2B,A,/ B,/C2 | 
[V:1] B2c2d4 | 
[V:2] GFE2D2G2- | 
[V:3] d2c4B2 | 
[V:4] B2G2z2G2 | 
[V:5] G,2C,2G,3F, | 
[V:1] e4dcBA | 
[V:2] G2G2G4- | 
[V:3] G2>A2B4- | 
[V:4] B2c2d2e2 | 
[V:5] E,2C,2G,4- | 
[V:1] B2A4G2- | 
[V:2] G2E2FEDC | 
[V:3] B2c2d4- | 
[V:4] d2c4B2 | 
[V:5] G,2A,2F,2G,2 | 
[V:1] G2^FEF2F2 | 
[V:2] D6D2 | 
[V:3] d2cBA2d2 | 
[V:4] A8 | 
[V:5] D,6D,2 | 
[V:1] G8- | 
[V:2] D8- | 
[V:3] B8- | 
[V:4] G8- | 
[V:5] G,8- | 
[V:1] G8 | 
[V:2] D8 | 
[V:3] B8 | 
[V:4] G8 | 
[V:5] G,8 | 
[V:1] G4d4- | 
[V:2] z4D4 | 
[V:3] z8 | 
[V:4] z8 | 
[V:5] z8 | 
[V:1] d2B2d2e2- | 
[V:2] G6E2 | 
[V:3] z8 | 
[V:4] z8 | 
[V:5] z8 | 
[V:1] edcBc2A2 | 
[V:2] G2A2>G2FE | 
[V:3] z8 | 
[V:4] z8 | 
[V:5] z8 | 
[V:1] B4A4 | 
[V:2] D2G4^F2 | 
[V:3] z8 | 
[V:4] G4d4- | 
[V:5] z4D,4 | 
[V:1] G2dcBAG2- | 
[V:2] G4G,3A, | 
[V:3] z8 | 
[V:4] d2B2d2e2- | 
[V:5] G,6E,2 | 
[V:1] GFE2A4 | 
[V:2] B,2C2A,B,CD | 
[V:3] z8 | 
[V:4] edcBc2A2 | 
[V:5] G,2A,2>G,2F,2 | 
[V:1] z4A4 | 
[V:2] E2D2z4 | 
[V:3] G4d4- | 
[V:4] B4A4 | 
[V:5] E,^F,G,4F,2 | 
[V:1] d6B2 | 
[V:2] D4G4- | 
[V:3] d2B2d2e2- | 
[V:4] G2dcBAB2 | 
[V:5] G,8 | 
[V:1] e6dc | 
[V:2] G2E2G2A2- | 
[V:3] edcBc2A2 | 
[V:4] c2g4fe | 
[V:5] C,2>D,2E,2F,2 | 
[V:1] B2G2A4 | 
[V:2] AGG4^F2 | 
[V:3] B4A4 | 
[V:4] d8 | 
[V:5] G,4D,4 | 
[V:1] B8- | 
[V:2] G8- | 
[V:3] G8- | 
[V:4] d8- | 
[V:5] G,8- | 
[V:1] B8 |]  
[V:2] G8 |]  
[V:3] G8 |]  
[V:4] d8 |]  
[V:5] G,8 |]  

